X: 1
T: Evelyn M.E. Murray of Cambridge, Mass
C: Ron Gonnella
R: march
Z: 2019 John Chambers <jc:trillian.mit.edu>
N: Handout at Evelyn's going-away party 2019-9-29, before she returned to the U.K.
M: C
L: 1/8
K: G
D2 |\
"G"G2G2 G2Bc | d3e d2B2 | "Am"c3d edcB | "D7"c2A2 A2D2 |\
"G"G2G2 G2Bc | d3e d2B2 | "C"c2de "D7"dcBA | "G"B2G2 G2 :|
d2 |\
"G"g2ga gdBd | "Am"cBcd "D7"edef | "G"g2ga gdBd | "D7"c2A2 A2d2 |\
"G"g2ga gdBd | "Am"cBcd "D7"efge | "G"d2g2 "D7"fgaf | g2G2 G2 |]
d2 |\
g2ga gdBd | "C"cBcd "D7"edef | "G"g2ga gdBd | "Am"c2A2 "D7"A2D2 |\
"G"G2GA BABc | "Bm"d3c "Em"BcdB | "Am"c2de "D7"dcBA | "G"B2G2 G2 |]
